logos/biomodels.svg

<?xml version="1.0" encoding="UTF-8"?>
<!DOCTYPE svg PUBLIC "-//W3C//DTD SVG 1.1//EN" "http://www.w3.org/Graphics/SVG/1.1/DTD/svg11.dtd">
<svg xmlns="http://www.w3.org/2000/svg" version="1.1" width="80px" height="80px" style="shape-rendering:geometricPrecision; text-rendering:geometricPrecision; image-rendering:optimizeQuality; fill-rule:evenodd; clip-rule:evenodd" xmlns:xlink="http://www.w3.org/1999/xlink">
<g><path style="opacity:0.755" fill="#306763" d="M 70.5,29.5 C 70.5,28.8333 70.1667,28.5 69.5,28.5C 69.5,27.8333 69.1667,27.5 68.5,27.5C 68.5,26.8333 68.1667,26.5 67.5,26.5C 67.5,25.8333 67.1667,25.5 66.5,25.5C 66.5,24.8333 66.1667,24.5 65.5,24.5C 65.5,23.8333 65.1667,23.5 64.5,23.5C 64.5,22.8333 64.1667,22.5 63.5,22.5C 63.5,21.8333 63.1667,21.5 62.5,21.5C 62.5,20.8333 62.1667,20.5 61.5,20.5C 59.4309,17.4275 56.7642,15.0941 53.5,13.5C 53.1583,12.6618 52.4916,12.3284 51.5,12.5C 43.9614,7.97341 36.2947,7.64008 28.5,11.5C 24.756,11.928 21.756,13.5947 19.5,16.5C 18.8333,16.5 18.5,16.8333 18.5,17.5C 17.8333,17.5 17.5,17.8333 17.5,18.5C 16.8333,18.5 16.5,18.8333 16.5,19.5C 15.0256,20.4363 14.0256,21.7697 13.5,23.5C 12.6618,23.8417 12.3284,24.5084 12.5,25.5C 11.6618,25.8417 11.3284,26.5084 11.5,27.5C 10.596,28.209 10.2627,29.209 10.5,30.5C 7.83333,36.1667 7.83333,41.8333 10.5,47.5C 10.2627,48.791 10.596,49.791 11.5,50.5C 11.4729,52.1993 10.8062,53.5326 9.5,54.5C 8.5,54.5 7.5,54.5 6.5,54.5C -0.566026,32.5066 6.10064,16.3399 26.5,6C 48.6436,0.40494 63.9769,8.07161 72.5,29C 71.9056,29.4643 71.2389,29.631 70.5,29.5 Z M 53.5,13.5 C 56.7642,15.0941 59.4309,17.4275 61.5,20.5C 57.3068,18.3773 52.9735,18.044 48.5,19.5C 49.6222,18.0527 51.1222,17.0527 53,16.5C 53.4828,15.552 53.6495,14.552 53.5,13.5 Z M 51.5,24.5 C 51.573,26.0269 50.9063,27.0269 49.5,27.5C 49.427,25.9731 50.0937,24.9731 51.5,24.5 Z"/></g>
<g><path style="opacity:0.942" fill="#b5c8c2" d="M 51.5,12.5 C 51.8417,13.3382 52.5084,13.6716 53.5,13.5C 53.6495,14.552 53.4828,15.552 53,16.5C 51.1222,17.0527 49.6222,18.0527 48.5,19.5C 47.8333,19.5 47.5,19.8333 47.5,20.5C 46.8333,20.5 46.5,20.8333 46.5,21.5C 45.8333,21.5 45.5,21.8333 45.5,22.5C 43.5,22.5 41.5,22.5 39.5,22.5C 39.5,18.5 39.5,14.5 39.5,10.5C 43.6163,10.5407 47.6163,11.2073 51.5,12.5 Z"/></g>
<g><path style="opacity:0.971" fill="#b5c7c1" d="M 28.5,11.5 C 31.8067,10.9492 35.1401,10.6159 38.5,10.5C 38.5,14.5 38.5,18.5 38.5,22.5C 33.5,22.5 28.5,22.5 23.5,22.5C 23.3359,19.8127 23.5026,17.146 24,14.5C 25.6516,13.6006 27.1516,12.6006 28.5,11.5 Z"/></g>
<g><path style="opacity:0.868" fill="#b6c7c1" d="M 16.5,19.5 C 17.1667,19.5 17.5,19.1667 17.5,18.5C 18.1667,18.5 18.5,18.1667 18.5,17.5C 19.1667,17.5 19.5,17.1667 19.5,16.5C 20.4959,16.5858 21.3292,16.2524 22,15.5C 22.4966,17.8098 22.6633,20.1432 22.5,22.5C 20.1432,22.6633 17.8098,22.4966 15.5,22C 16.2524,21.3292 16.5858,20.4959 16.5,19.5 Z"/></g>
<g><path style="opacity:0.756" fill="#658adb" d="M 61.5,20.5 C 62.1667,20.5 62.5,20.8333 62.5,21.5C 63.1667,21.5 63.5,21.8333 63.5,22.5C 64.1667,22.5 64.5,22.8333 64.5,23.5C 65.1667,23.5 65.5,23.8333 65.5,24.5C 66.1667,24.5 66.5,24.8333 66.5,25.5C 67.1667,25.5 67.5,25.8333 67.5,26.5C 68.1667,26.5 68.5,26.8333 68.5,27.5C 69.1667,27.5 69.5,27.8333 69.5,28.5C 70.1667,28.5 70.5,28.8333 70.5,29.5C 71.9997,31.1786 73.833,32.5119 76,33.5C 76.7975,35.2588 76.6309,36.9255 75.5,38.5C 72.8068,37.1534 70.1401,35.8201 67.5,34.5C 64.4372,30.4342 60.7706,27.1009 56.5,24.5C 54.8333,21.8333 53.1667,21.8333 51.5,24.5C 50.0937,24.9731 49.427,25.9731 49.5,27.5C 47.412,29.3356 46.0787,31.6689 45.5,34.5C 42.6771,37.4751 40.3437,40.8084 38.5,44.5C 37.8333,44.5 37.5,44.8333 37.5,45.5C 36.8333,45.5 36.5,45.8333 36.5,46.5C 35.8333,46.5 35.5,46.8333 35.5,47.5C 34.8333,47.5 34.5,47.8333 34.5,48.5C 32.9731,48.427 31.9731,49.0937 31.5,50.5C 30.8333,50.5 30.5,50.8333 30.5,51.5C 29.5084,51.3284 28.8417,51.6618 28.5,52.5C 27.5084,52.3284 26.8417,52.6618 26.5,53.5C 25.5084,53.3284 24.8417,53.6618 24.5,54.5C 23.5084,54.3284 22.8417,54.6618 22.5,55.5C 21.5084,55.3284 20.8417,55.6618 20.5,56.5C 19.5084,56.3284 18.8417,56.6618 18.5,57.5C 15.1879,57.9927 12.0212,58.9927 9,60.5C 4.36555,58.1018 4.53221,56.1018 9.5,54.5C 12.5418,54.2671 15.2084,53.2671 17.5,51.5C 20.089,51.539 22.089,50.539 23.5,48.5C 24.4916,48.6716 25.1583,48.3382 25.5,47.5C 30.1045,45.8947 33.4378,42.8947 35.5,38.5C 36.1667,38.5 36.5,38.1667 36.5,37.5C 37.9063,37.0269 38.573,36.0269 38.5,34.5C 39.9063,34.0269 40.573,33.0269 40.5,31.5C 41.3382,31.1583 41.6716,30.4916 41.5,29.5C 42.3382,29.1583 42.6716,28.4916 42.5,27.5C 44.2503,26.3406 45.2503,24.674 45.5,22.5C 46.1667,22.5 46.5,22.1667 46.5,21.5C 47.1667,21.5 47.5,21.1667 47.5,20.5C 48.1667,20.5 48.5,20.1667 48.5,19.5C 52.9735,18.044 57.3068,18.3773 61.5,20.5 Z M 56.5,24.5 C 54.631,26.6353 53.9644,29.3019 54.5,32.5C 54.1667,32.5 53.8333,32.5 53.5,32.5C 54.0356,29.3019 53.369,26.6353 51.5,24.5C 53.1667,21.8333 54.8333,21.8333 56.5,24.5 Z M 51.5,24.5 C 51.573,26.0269 50.9063,27.0269 49.5,27.5C 49.427,25.9731 50.0937,24.9731 51.5,24.5 Z M 56.5,24.5 C 60.7706,27.1009 64.4372,30.4342 67.5,34.5C 63.2294,31.8991 59.5628,28.5658 56.5,24.5 Z M 49.5,27.5 C 48.8333,29.5 48.1667,31.5 47.5,33.5C 46.8333,33.8333 46.1667,34.1667 45.5,34.5C 46.0787,31.6689 47.412,29.3356 49.5,27.5 Z"/></g>
<g><path style="opacity:0.93" fill="#b6c8c3" d="M 13.5,23.5 C 16.5,23.5 19.5,23.5 22.5,23.5C 22.5,28.5 22.5,33.5 22.5,38.5C 18.1161,38.8256 13.7828,38.4922 9.5,37.5C 10.3742,35.2534 10.7076,32.9201 10.5,30.5C 11.404,29.791 11.7373,28.791 11.5,27.5C 12.3382,27.1583 12.6716,26.4916 12.5,25.5C 13.3382,25.1583 13.6716,24.4916 13.5,23.5 Z"/></g>
<g><path style="opacity:0.844" fill="#b6c7c1" d="M 38.5,26.5 C 35.5755,26.4598 32.9088,27.2932 30.5,29C 28.3503,32.1467 26.3503,35.3133 24.5,38.5C 23.5128,33.6946 23.1795,28.6946 23.5,23.5C 28.1785,23.3342 32.8452,23.5008 37.5,24C 38.2524,24.6708 38.5858,25.5041 38.5,26.5 Z"/></g>
<g><path style="opacity:0.72" fill="#b6c7c2" d="M 42.5,27.5 C 42.1667,27.5 41.8333,27.5 41.5,27.5C 40.5084,27.6716 39.8417,27.3382 39.5,26.5C 39.5,25.5 39.5,24.5 39.5,23.5C 43.1859,23.13 44.1859,24.4633 42.5,27.5 Z"/></g>
<g><path style="opacity:0.89" fill="#b6c7c1" d="M 51.5,24.5 C 53.369,26.6353 54.0356,29.3019 53.5,32.5C 51.7162,32.8925 50.0495,33.5592 48.5,34.5C 48.5,33.8333 48.1667,33.5 47.5,33.5C 48.1667,31.5 48.8333,29.5 49.5,27.5C 50.9063,27.0269 51.573,26.0269 51.5,24.5 Z"/></g>
<g><path style="opacity:0.936" fill="#b6c7c1" d="M 56.5,24.5 C 59.5628,28.5658 63.2294,31.8991 67.5,34.5C 67.5,35.5 67.5,36.5 67.5,37.5C 63.5188,35.013 59.1854,33.3463 54.5,32.5C 53.9644,29.3019 54.631,26.6353 56.5,24.5 Z"/></g>
<g><path style="opacity:0.922" fill="#f6675e" d="M 38.5,26.5 C 38.8333,26.5 39.1667,26.5 39.5,26.5C 39.8417,27.3382 40.5084,27.6716 41.5,27.5C 41.5,28.1667 41.5,28.8333 41.5,29.5C 40.6618,29.8417 40.3284,30.5084 40.5,31.5C 39.8333,31.8333 39.1667,32.1667 38.5,32.5C 34.6202,32.3217 31.9535,34.3217 30.5,38.5C 30.5,38.8333 30.5,39.1667 30.5,39.5C 29.2632,40.9649 28.2632,42.6316 27.5,44.5C 26.8333,45.5 26.1667,46.5 25.5,47.5C 24.5084,47.3284 23.8417,47.6618 23.5,48.5C 21.1815,48.9925 19.1815,49.9925 17.5,51.5C 15.8612,51.9258 14.5279,51.9258 13.5,51.5C 17.2054,48.7949 20.2054,45.4616 22.5,41.5C 23.9063,41.0269 24.573,40.0269 24.5,38.5C 26.3503,35.3133 28.3503,32.1467 30.5,29C 32.9088,27.2932 35.5755,26.4598 38.5,26.5 Z"/></g>
<g><path style="opacity:0.791" fill="#b9c8c1" d="M 38.5,32.5 C 38.5,33.1667 38.5,33.8333 38.5,34.5C 37.0937,34.9731 36.427,35.9731 36.5,37.5C 35.8333,37.5 35.5,37.8333 35.5,38.5C 33.8333,38.5 32.1667,38.5 30.5,38.5C 31.9535,34.3217 34.6202,32.3217 38.5,32.5 Z"/></g>
<g><path style="opacity:0.791" fill="#f5c463" d="M 53.5,32.5 C 53.8333,32.5 54.1667,32.5 54.5,32.5C 59.1854,33.3463 63.5188,35.013 67.5,37.5C 67.7947,39.7354 67.4614,41.7354 66.5,43.5C 66.5,42.8333 66.1667,42.5 65.5,42.5C 63.9991,41.2485 62.3325,40.2485 60.5,39.5C 58.5769,38.3943 56.5769,37.3943 54.5,36.5C 53.2613,36.9424 52.2613,37.6091 51.5,38.5C 49.8333,39.5 48.5,40.8333 47.5,42.5C 45.1667,45.5 42.5,48.1667 39.5,50.5C 38.8333,50.5 38.5,50.8333 38.5,51.5C 38.1667,51.5 37.8333,51.5 37.5,51.5C 36.8333,51.5 36.5,51.8333 36.5,52.5C 35.8333,52.8333 35.1667,53.1667 34.5,53.5C 33.2905,53.9321 32.2905,54.5987 31.5,55.5C 31.1667,55.5 30.8333,55.5 30.5,55.5C 29.8333,55.5 29.5,55.8333 29.5,56.5C 27.1815,56.9925 25.1815,57.9925 23.5,59.5C 23.1667,59.5 22.8333,59.5 22.5,59.5C 21.5084,59.3284 20.8417,59.6618 20.5,60.5C 19.0937,60.0269 18.427,59.0269 18.5,57.5C 19.4916,57.6716 20.1583,57.3382 20.5,56.5C 21.4916,56.6716 22.1583,56.3382 22.5,55.5C 23.4916,55.6716 24.1583,55.3382 24.5,54.5C 25.4916,54.6716 26.1583,54.3382 26.5,53.5C 27.4916,53.6716 28.1583,53.3382 28.5,52.5C 29.4916,52.6716 30.1583,52.3382 30.5,51.5C 31.1667,51.5 31.5,51.1667 31.5,50.5C 33.0269,50.573 34.0269,49.9063 34.5,48.5C 35.1667,48.5 35.5,48.1667 35.5,47.5C 36.1667,47.5 36.5,47.1667 36.5,46.5C 37.1667,46.5 37.5,46.1667 37.5,45.5C 38.1667,45.5 38.5,45.1667 38.5,44.5C 41.8615,42.1051 44.5281,39.1051 46.5,35.5C 47.1667,35.1667 47.8333,34.8333 48.5,34.5C 50.0495,33.5592 51.7162,32.8925 53.5,32.5 Z M 60.5,39.5 C 58.2646,39.2053 56.2646,39.5386 54.5,40.5C 53.5,39.8333 52.5,39.1667 51.5,38.5C 52.2613,37.6091 53.2613,36.9424 54.5,36.5C 56.5769,37.3943 58.5769,38.3943 60.5,39.5 Z"/></g>
<g><path style="opacity:0.212" fill="#fa6666" d="M 47.5,33.5 C 48.1667,33.5 48.5,33.8333 48.5,34.5C 47.8333,34.8333 47.1667,35.1667 46.5,35.5C 45.8333,35.5 45.5,35.1667 45.5,34.5C 46.1667,34.1667 46.8333,33.8333 47.5,33.5 Z"/></g>
<g><path style="opacity:0.766" fill="#306763" d="M 51.5,65.5 C 52.4916,65.6716 53.1583,65.3382 53.5,64.5C 55.0269,64.573 56.0269,63.9063 56.5,62.5C 57.1667,62.5 57.5,62.1667 57.5,61.5C 58.1667,61.5 58.5,61.1667 58.5,60.5C 59.1667,60.5 59.5,60.1667 59.5,59.5C 60.1667,59.5 60.5,59.1667 60.5,58.5C 61.1667,58.5 61.5,58.1667 61.5,57.5C 64.4053,55.244 66.072,52.244 66.5,48.5C 68.0911,44.7964 68.9244,40.7964 69,36.5C 71.9086,37.1992 73.4086,39.0326 73.5,42C 71.6935,58.1361 63.0268,68.4694 47.5,73C 33.0595,76.0621 21.0595,72.0621 11.5,61C 13.3646,59.6986 15.3646,59.3653 17.5,60C 23.3603,66.0113 30.527,69.1779 39,69.5C 43.5691,69.06 47.7358,67.7267 51.5,65.5 Z"/></g>
<g><path style="opacity:0.927" fill="#f66560" d="M 51.5,38.5 C 52.5,39.1667 53.5,39.8333 54.5,40.5C 57.2724,44.3871 60.9391,47.0538 65.5,48.5C 65.2503,50.674 64.2503,52.3406 62.5,53.5C 60.3649,51.9291 58.0316,50.5957 55.5,49.5C 55.1667,48.5 54.5,47.8333 53.5,47.5C 51.5248,45.863 49.5248,44.1964 47.5,42.5C 48.5,40.8333 49.8333,39.5 51.5,38.5 Z"/></g>
<g><path style="opacity:0.958" fill="#b5c8c3" d="M 22.5,41.5 C 20.2054,45.4616 17.2054,48.7949 13.5,51.5C 12.8333,51.1667 12.1667,50.8333 11.5,50.5C 11.7373,49.209 11.404,48.209 10.5,47.5C 10.7076,45.0799 10.3742,42.7466 9.5,40.5C 11.6667,40.1667 13.8333,39.8333 16,39.5C 18.6103,39.5332 20.777,40.1999 22.5,41.5 Z"/></g>
<g><path style="opacity:0.653" fill="#b6c7c2" d="M 30.5,39.5 C 31.552,39.3505 32.552,39.5172 33.5,40C 31.8863,42.1267 29.8863,43.6267 27.5,44.5C 28.2632,42.6316 29.2632,40.9649 30.5,39.5 Z"/></g>
<g><path style="opacity:0.961" fill="#b6c8c2" d="M 60.5,39.5 C 62.3325,40.2485 63.9991,41.2485 65.5,42.5C 66.1667,42.5 66.5,42.8333 66.5,43.5C 66.5,45.1667 66.5,46.8333 66.5,48.5C 66.1667,48.5 65.8333,48.5 65.5,48.5C 60.9391,47.0538 57.2724,44.3871 54.5,40.5C 56.2646,39.5386 58.2646,39.2053 60.5,39.5 Z"/></g>
<g><path style="opacity:0.909" fill="#b6c7c1" d="M 47.5,42.5 C 49.5248,44.1964 51.5248,45.863 53.5,47.5C 53.5,49.8333 53.5,52.1667 53.5,54.5C 48.8333,54.5 44.1667,54.5 39.5,54.5C 39.5,53.1667 39.5,51.8333 39.5,50.5C 42.5,48.1667 45.1667,45.5 47.5,42.5 Z"/></g>
<g><path style="opacity:0.685" fill="#b6c7c1" d="M 55.5,49.5 C 58.0316,50.5957 60.3649,51.9291 62.5,53.5C 60.3718,54.6291 58.0385,54.7958 55.5,54C 54.1991,52.3845 54.1991,50.8845 55.5,49.5 Z"/></g>
<g><path style="opacity:0.165" fill="#b5cac5" d="M 37.5,51.5 C 37.8333,51.5 38.1667,51.5 38.5,51.5C 38.0423,54.3091 36.7089,54.9758 34.5,53.5C 35.1667,53.1667 35.8333,52.8333 36.5,52.5C 37.1667,52.5 37.5,52.1667 37.5,51.5 Z"/></g>
<g><path style="opacity:0.945" fill="#b6c8c1" d="M 30.5,55.5 C 30.8333,55.5 31.1667,55.5 31.5,55.5C 33.8333,55.5 36.1667,55.5 38.5,55.5C 38.5,59.5 38.5,63.5 38.5,67.5C 33.5172,67.5876 28.8506,66.421 24.5,64C 23.6198,62.6439 23.2865,61.1439 23.5,59.5C 25.1815,57.9925 27.1815,56.9925 29.5,56.5C 30.1667,56.5 30.5,56.1667 30.5,55.5 Z"/></g>
<g><path style="opacity:0.962" fill="#b4c7c2" d="M 53.5,64.5 C 52.5084,64.3284 51.8417,64.6618 51.5,65.5C 47.6163,66.7927 43.6163,67.4593 39.5,67.5C 39.5,63.5 39.5,59.5 39.5,55.5C 44.1667,55.5 48.8333,55.5 53.5,55.5C 53.5,58.5 53.5,61.5 53.5,64.5 Z"/></g>
<g><path style="opacity:0.908" fill="#b5c9c4" d="M 61.5,57.5 C 60.8333,57.5 60.5,57.8333 60.5,58.5C 59.8333,58.5 59.5,58.8333 59.5,59.5C 58.8333,59.5 58.5,59.8333 58.5,60.5C 57.8333,60.5 57.5,60.8333 57.5,61.5C 56.8333,61.5 56.5,61.8333 56.5,62.5C 54.6565,60.7211 53.9898,58.3878 54.5,55.5C 57.3878,54.9898 59.7211,55.6565 61.5,57.5 Z"/></g>
<g><path style="opacity:0.387" fill="#c2cfcd" d="M 22.5,59.5 C 22.6547,62.8531 21.9881,63.1864 20.5,60.5C 20.8417,59.6618 21.5084,59.3284 22.5,59.5 Z"/></g>
</svg>

<svg xmlns="http://www.w3.org/2000/svg" width="80" height="80" style="shape-rendering:geometricPrecision;text-rendering:geometricPrecision;image-rendering:optimizeQuality;fill-rule:evenodd;clip-rule:evenodd"><path style="opacity:.755" fill="#306763" d="M70.5 29.5c0-.667-.333-1-1-1 0-.667-.333-1-1-1 0-.667-.333-1-1-1 0-.667-.333-1-1-1 0-.667-.333-1-1-1 0-.667-.333-1-1-1 0-.667-.333-1-1-1 0-.667-.333-1-1-1 0-.667-.333-1-1-1-2.07-3.073-4.736-5.406-8-7-.342-.838-1.008-1.172-2-1-7.539-4.527-15.205-4.86-23-1-3.744.428-6.744 2.095-9 5-.667 0-1 .333-1 1-.667 0-1 .333-1 1-.667 0-1 .333-1 1-1.474.936-2.474 2.27-3 4-.838.342-1.172 1.008-1 2-.838.342-1.172 1.008-1 2-.904.709-1.237 1.709-1 3-2.667 5.667-2.667 11.333 0 17-.237 1.291.096 2.291 1 3-.027 1.7-.694 3.033-2 4h-3C-.566 32.507 6.1 16.34 26.5 6c22.144-5.595 37.477 2.072 46 23a2.428 2.428 0 0 1-2 .5zm-17-16c3.264 1.594 5.93 3.927 8 7-4.193-2.123-8.526-2.456-13-1 1.122-1.447 2.622-2.447 4.5-3 .483-.948.65-1.948.5-3zm-2 11c.073 1.527-.594 2.527-2 3-.073-1.527.594-2.527 2-3z"/><path style="opacity:.942" fill="#b5c8c2" d="M51.5 12.5c.342.838 1.008 1.172 2 1a4.932 4.932 0 0 1-.5 3c-1.878.553-3.378 1.553-4.5 3-.667 0-1 .333-1 1-.667 0-1 .333-1 1-.667 0-1 .333-1 1h-6v-12c4.116.04 8.116.707 12 2z"/><path style="opacity:.971" fill="#b5c7c1" d="M28.5 11.5a76.94 76.94 0 0 1 10-1v12h-15a32.437 32.437 0 0 1 .5-8c1.652-.9 3.152-1.9 4.5-3z"/><path style="opacity:.868" fill="#b6c7c1" d="M16.5 19.5c.667 0 1-.333 1-1 .667 0 1-.333 1-1 .667 0 1-.333 1-1 .996.086 1.83-.248 2.5-1 .497 2.31.663 4.643.5 7a24.939 24.939 0 0 1-7-.5c.752-.67 1.086-1.504 1-2.5z"/><path style="opacity:.756" fill="#658adb" d="M61.5 20.5c.667 0 1 .333 1 1 .667 0 1 .333 1 1 .667 0 1 .333 1 1 .667 0 1 .333 1 1 .667 0 1 .333 1 1 .667 0 1 .333 1 1 .667 0 1 .333 1 1 .667 0 1 .333 1 1 .667 0 1 .333 1 1 1.5 1.679 3.333 3.012 5.5 4 .797 1.759.63 3.425-.5 5l-8-4c-3.063-4.066-6.73-7.4-11-10-1.667-2.667-3.333-2.667-5 0-1.406.473-2.073 1.473-2 3-2.088 1.836-3.421 4.169-4 7a41.17 41.17 0 0 0-7 10c-.667 0-1 .333-1 1-.667 0-1 .333-1 1-.667 0-1 .333-1 1-.667 0-1 .333-1 1-1.527-.073-2.527.594-3 2-.667 0-1 .333-1 1-.992-.172-1.658.162-2 1-.992-.172-1.658.162-2 1-.992-.172-1.658.162-2 1-.992-.172-1.658.162-2 1-.992-.172-1.658.162-2 1-.992-.172-1.658.162-2 1a31.553 31.553 0 0 0-9.5 3c-4.634-2.398-4.468-4.398.5-6 3.042-.233 5.708-1.233 8-3 2.589.039 4.589-.961 6-3 .992.172 1.658-.162 2-1 4.605-1.605 7.938-4.605 10-9 .667 0 1-.333 1-1 1.406-.473 2.073-1.473 2-3 1.406-.473 2.073-1.473 2-3 .838-.342 1.172-1.008 1-2 .838-.342 1.172-1.008 1-2 1.75-1.16 2.75-2.826 3-5 .667 0 1-.333 1-1 .667 0 1-.333 1-1 .667 0 1-.333 1-1 4.474-1.456 8.807-1.123 13 1zm-5 4c-1.869 2.135-2.536 4.802-2 8h-1c.536-3.198-.131-5.865-2-8 1.667-2.667 3.333-2.667 5 0zm-5 0c.073 1.527-.594 2.527-2 3-.073-1.527.594-2.527 2-3zm5 0c4.27 2.6 7.937 5.934 11 10-4.27-2.6-7.937-5.934-11-10zm-7 3-2 6-2 1c.579-2.831 1.912-5.164 4-7z"/><path style="opacity:.93" fill="#b6c8c3" d="M13.5 23.5h9v15a43.123 43.123 0 0 1-13-1 15.42 15.42 0 0 0 1-7c.904-.709 1.237-1.709 1-3 .838-.342 1.172-1.008 1-2 .838-.342 1.172-1.008 1-2z"/><path style="opacity:.844" fill="#b6c7c1" d="M38.5 26.5c-2.925-.04-5.591.793-8 2.5a153.35 153.35 0 0 0-6 9.5c-.987-4.805-1.32-9.805-1-15 4.678-.166 9.345 0 14 .5.752.67 1.086 1.504 1 2.5z"/><path style="opacity:.72" fill="#b6c7c2" d="M42.5 27.5h-1c-.992.172-1.658-.162-2-1v-3c3.686-.37 4.686.963 3 4z"/><path style="opacity:.89" fill="#b6c7c1" d="M51.5 24.5c1.869 2.135 2.536 4.802 2 8a16.328 16.328 0 0 0-5 2c0-.667-.333-1-1-1l2-6c1.406-.473 2.073-1.473 2-3z"/><path style="opacity:.936" fill="#b6c7c1" d="M56.5 24.5c3.063 4.066 6.73 7.4 11 10v3c-3.981-2.487-8.315-4.154-13-5-.536-3.198.131-5.865 2-8z"/><path style="opacity:.922" fill="#f6675e" d="M38.5 26.5h1c.342.838 1.008 1.172 2 1v2c-.838.342-1.172 1.008-1 2l-2 1c-3.88-.178-6.547 1.822-8 6v1c-1.237 1.465-2.237 3.132-3 5l-2 3c-.992-.172-1.658.162-2 1-2.319.492-4.319 1.492-6 3-1.639.426-2.972.426-4 0a32.29 32.29 0 0 0 9-10c1.406-.473 2.073-1.473 2-3a153.35 153.35 0 0 1 6-9.5c2.409-1.707 5.075-2.54 8-2.5z"/><path style="opacity:.791" fill="#b9c8c1" d="M38.5 32.5v2c-1.406.473-2.073 1.473-2 3-.667 0-1 .333-1 1h-5c1.453-4.178 4.12-6.178 8-6z"/><path style="opacity:.791" fill="#f5c463" d="M53.5 32.5h1c4.685.846 9.019 2.513 13 5 .295 2.235-.039 4.235-1 6 0-.667-.333-1-1-1a18.941 18.941 0 0 0-5-3 58.217 58.217 0 0 0-6-3c-1.239.442-2.239 1.11-3 2-1.667 1-3 2.333-4 4-2.333 3-5 5.667-8 8-.667 0-1 .333-1 1h-1c-.667 0-1 .333-1 1l-2 1c-1.21.432-2.21 1.099-3 2h-1c-.667 0-1 .333-1 1-2.319.492-4.319 1.492-6 3h-1c-.992-.172-1.658.162-2 1-1.406-.473-2.073-1.473-2-3 .992.172 1.658-.162 2-1 .992.172 1.658-.162 2-1 .992.172 1.658-.162 2-1 .992.172 1.658-.162 2-1 .992.172 1.658-.162 2-1 .992.172 1.658-.162 2-1 .667 0 1-.333 1-1 1.527.073 2.527-.594 3-2 .667 0 1-.333 1-1 .667 0 1-.333 1-1 .667 0 1-.333 1-1 .667 0 1-.333 1-1a26.576 26.576 0 0 0 8-9l2-1a16.328 16.328 0 0 1 5-2zm7 7c-2.235-.295-4.235.039-6 1l-3-2c.761-.89 1.761-1.558 3-2a58.217 58.217 0 0 1 6 3z"/><path style="opacity:.212" fill="#fa6666" d="M47.5 33.5c.667 0 1 .333 1 1l-2 1c-.667 0-1-.333-1-1l2-1z"/><path style="opacity:.766" fill="#306763" d="M51.5 65.5c.992.172 1.658-.162 2-1 1.527.073 2.527-.594 3-2 .667 0 1-.333 1-1 .667 0 1-.333 1-1 .667 0 1-.333 1-1 .667 0 1-.333 1-1 .667 0 1-.333 1-1 2.905-2.256 4.572-5.256 5-9 1.591-3.704 2.424-7.704 2.5-12 2.909.7 4.409 2.533 4.5 5.5-1.806 16.136-10.473 26.47-26 31-14.44 3.062-26.44-.938-36-12 1.865-1.301 3.865-1.635 6-1 5.86 6.011 13.027 9.178 21.5 9.5 4.57-.44 8.736-1.773 12.5-4z"/><path style="opacity:.927" fill="#f66560" d="m51.5 38.5 3 2c2.772 3.887 6.44 6.554 11 8-.25 2.174-1.25 3.84-3 5a35.67 35.67 0 0 0-7-4c-.333-1-1-1.667-2-2a1464.947 1464.947 0 0 1-6-5c1-1.667 2.333-3 4-4z"/><path style="opacity:.958" fill="#b5c8c3" d="M22.5 41.5a32.29 32.29 0 0 1-9 10l-2-1c.237-1.291-.096-2.291-1-3a15.42 15.42 0 0 0-1-7l6.5-1c2.61.033 4.777.7 6.5 2z"/><path style="opacity:.653" fill="#b6c7c2" d="M30.5 39.5a4.932 4.932 0 0 1 3 .5c-1.614 2.127-3.614 3.627-6 4.5.763-1.868 1.763-3.535 3-5z"/><path style="opacity:.961" fill="#b6c8c2" d="M60.5 39.5c1.833.748 3.5 1.748 5 3 .667 0 1 .333 1 1v5h-1c-4.56-1.446-8.228-4.113-11-8 1.765-.961 3.765-1.295 6-1z"/><path style="opacity:.909" fill="#b6c7c1" d="M47.5 42.5c2.025 1.696 4.025 3.363 6 5v7h-14v-4c3-2.333 5.667-5 8-8z"/><path style="opacity:.685" fill="#b6c7c1" d="M55.5 49.5a35.67 35.67 0 0 1 7 4c-2.128 1.13-4.462 1.296-7 .5-1.3-1.615-1.3-3.115 0-4.5z"/><path style="opacity:.165" fill="#b5cac5" d="M37.5 51.5h1c-.458 2.81-1.791 3.476-4 2l2-1c.667 0 1-.333 1-1z"/><path style="opacity:.945" fill="#b6c8c1" d="M30.5 55.5h8v12c-4.983.088-9.65-1.079-14-3.5-.88-1.356-1.213-2.856-1-4.5 1.681-1.508 3.681-2.508 6-3 .667 0 1-.333 1-1z"/><path style="opacity:.962" fill="#b4c7c2" d="M53.5 64.5c-.992-.172-1.658.162-2 1a38.986 38.986 0 0 1-12 2v-12h14v9z"/><path style="opacity:.908" fill="#b5c9c4" d="M61.5 57.5c-.667 0-1 .333-1 1-.667 0-1 .333-1 1-.667 0-1 .333-1 1-.667 0-1 .333-1 1-.667 0-1 .333-1 1-1.843-1.779-2.51-4.112-2-7 2.888-.51 5.221.157 7 2z"/><path style="opacity:.387" fill="#c2cfcd" d="M22.5 59.5c.155 3.353-.512 3.686-2 1 .342-.838 1.008-1.172 2-1z"/></svg>
